static/img/olake/olake-nav-inactive.svg

<svg width="24" height="24" viewBox="0 0 24 24" fill="none" xmlns="http://www.w3.org/2000/svg">
<rect x="0.624797" y="0.624797" width="22.7504" height="22.7504" rx="5.3752" fill="#232323"/>
<rect x="0.624797" y="0.624797" width="22.7504" height="22.7504" rx="5.3752" stroke="#303030" stroke-width="1.24959"/>
<path d="M18 7C18 6.44772 17.5523 6 17 6L7 6C6.44772 6 6 6.44771 6 7L6 11.3646C6 11.9584 6.51369 12.4209 7.10513 12.3686C11.945 11.9407 17.7348 11.9506 14.5581 13.6594C12.2395 14.9066 13.8292 15.3668 15.2209 15.7697C16.1267 16.0319 16.9487 16.2698 16.555 16.6847C16.1052 17.1588 16.4081 17.4727 16.8769 17.6745C17.439 17.9165 18 17.4143 18 16.8023V7Z" fill="#595959"/>
</svg>

<svg xmlns="http://www.w3.org/2000/svg" width="24" height="24" fill="none" viewBox="0 0 24 24"><rect width="22.75" height="22.75" x=".625" y=".625" fill="#232323" rx="5.375"/><rect width="22.75" height="22.75" x=".625" y=".625" stroke="#303030" stroke-width="1.25" rx="5.375"/><path fill="#595959" d="M18 7a1 1 0 0 0-1-1H7a1 1 0 0 0-1 1v4.365c0 .593.514 1.056 1.105 1.004 4.84-.428 10.63-.418 7.453 1.29-2.318 1.248-.729 1.708.663 2.11.906.263 1.728.5 1.334.916-.45.474-.147.788.322.99.562.241 1.123-.26 1.123-.873z"/></svg>
